actions/22x22-light/kt-queue-manager.svg

<svg viewBox="0 0 22 22" xmlns="http://www.w3.org/2000/svg"><path d="m7.8613281 3.5703125c-.0772818 0-.1446882.0294539-.2011719.0859375-.0564836.0565931-.0839843.1219369-.0839843.1992188v1.7128906c0 .0772818.0275007.1445788.0839843.2011718.0564837.0563742.1238901.0839844.2011719.0839844h10.8437499c.077391 0 .144579-.0275007.201172-.0839844.056484-.056593.083984-.12389.083984-.2011718v-1.7128906c0-.0772819-.02761-.1427352-.083984-.1992188-.056703-.0563742-.123781-.0859375-.201172-.0859375zm0 6.2695313c-.0772818 0-.1446882.0273912-.2011719.0839843-.0564836.0564837-.0839843.1238899-.0839843.2011719v1.710938c0 .077172.0275007.144688.0839843.201171.0564837.056593.1238901.085938.2011719.085938h10.8437499c.077391 0 .144579-.029345.201172-.085938.056484-.056483.083984-.123999.083984-.201171v-1.710938c0-.077282-.02761-.1447977-.083984-.2011719-.056703-.0564836-.123781-.0839843-.201172-.0839843zm0 6.3066402c-.0772818 0-.1446882.027501-.2011719.083985-.0564836.056483-.0839843.123999-.0839843.201172v1.71289c0 .077392.0275007.142626.0839843.199219.0564837.056374.1238901.085938.2011719.085938h10.8437499c.077391 0 .144579-.029564.201172-.085938.056484-.056593.083984-.121827.083984-.199219v-1.71289c0-.077173-.02761-.144798-.083984-.201172-.056703-.056374-.123781-.083985-.201172-.083985z" fill="#4d4d4d"/><path d="m4.7207031 3c-.4757322 0-.8798999.1671188-1.2128906.5-.3328812.3329907-.4980469.7372678-.4980469 1.2128906 0 .4757323.1650562.8799.4980469 1.2128906.3329907.3328813.7372678.4980469 1.2128906.4980469s.8799-.1651656 1.2128907-.4980469c.3328812-.3329906.5-.7371583.5-1.2128906 0-.4756228-.1671188-.8798999-.5-1.2128906-.3328813-.3328812-.7371584-.5-1.2128907-.5zm0 6.2675781c-.4757322 0-.8798999.1670093-1.2128906.5-.3328812.3328809-.4980469.7371579-.4980469 1.2128909 0 .475623.1650562.880009.4980469 1.21289.3329907.332882.7372678.5 1.2128906.5s.8799-.167118 1.2128907-.5c.3328812-.332881.5-.737267.5-1.21289 0-.475733-.1670094-.88001-.5-1.2128909-.3328813-.3328812-.7371584-.5-1.2128907-.5zm0 6.3085939c-.4757322 0-.8800094.165056-1.2128906.498047-.3328812.33299-.4980469.737268-.4980469 1.21289 0 .475842.1650562.8799.4980469 1.212891.3329907.332881.7372678.5 1.2128906.5s.8799-.167119 1.2128907-.5c.3328812-.332991.5-.737049.5-1.212891 0-.475622-.1671188-.880009-.5-1.21289-.3328813-.332881-.7371584-.498047-1.2128907-.498047z" fill="#3daee9"/></svg>

<svg xmlns="http://www.w3.org/2000/svg" viewBox="0 0 22 22">
  <defs id="defs3051">
    <style type="text/css" id="current-color-scheme">
      .ColorScheme-Text {
        color:#4d4d4d;
      }
      .ColorScheme-Highlight {
        color:#3daee9;
      }
      </style>
  </defs>
 <path 
     style="fill:currentColor;fill-opacity:1;stroke:none" 
     d="M 7.8613281 3.5703125 C 7.7840463 3.5703125 7.7166399 3.5997664 7.6601562 3.65625 C 7.6036726 3.7128431 7.5761719 3.7781869 7.5761719 3.8554688 L 7.5761719 5.5683594 C 7.5761719 5.6456412 7.6036726 5.7129382 7.6601562 5.7695312 C 7.7166399 5.8259054 7.7840463 5.8535156 7.8613281 5.8535156 L 18.705078 5.8535156 C 18.782469 5.8535156 18.849657 5.8260149 18.90625 5.7695312 C 18.962734 5.7129382 18.990234 5.6456412 18.990234 5.5683594 L 18.990234 3.8554688 C 18.990234 3.7781869 18.962624 3.7127336 18.90625 3.65625 C 18.849547 3.5998758 18.782469 3.5703125 18.705078 3.5703125 L 7.8613281 3.5703125 z M 7.8613281 9.8398438 C 7.7840463 9.8398438 7.7166399 9.867235 7.6601562 9.9238281 C 7.6036726 9.9803118 7.5761719 10.047718 7.5761719 10.125 L 7.5761719 11.835938 C 7.5761719 11.91311 7.6036726 11.980626 7.6601562 12.037109 C 7.7166399 12.093702 7.7840463 12.123047 7.8613281 12.123047 L 18.705078 12.123047 C 18.782469 12.123047 18.849657 12.093702 18.90625 12.037109 C 18.962734 11.980626 18.990234 11.91311 18.990234 11.835938 L 18.990234 10.125 C 18.990234 10.047718 18.962624 9.9802023 18.90625 9.9238281 C 18.849547 9.8673445 18.782469 9.8398438 18.705078 9.8398438 L 7.8613281 9.8398438 z M 7.8613281 16.146484 C 7.7840463 16.146484 7.7166399 16.173985 7.6601562 16.230469 C 7.6036726 16.286952 7.5761719 16.354468 7.5761719 16.431641 L 7.5761719 18.144531 C 7.5761719 18.221923 7.6036726 18.287157 7.6601562 18.34375 C 7.7166399 18.400124 7.7840463 18.429688 7.8613281 18.429688 L 18.705078 18.429688 C 18.782469 18.429688 18.849657 18.400124 18.90625 18.34375 C 18.962734 18.287157 18.990234 18.221923 18.990234 18.144531 L 18.990234 16.431641 C 18.990234 16.354468 18.962624 16.286843 18.90625 16.230469 C 18.849547 16.174095 18.782469 16.146484 18.705078 16.146484 L 7.8613281 16.146484 z "
     class="ColorScheme-Text"
     />
 <path 
     style="fill:currentColor;fill-opacity:1;stroke:none" 
     d="M 4.7207031 3 C 4.2449709 3 3.8408032 3.1671188 3.5078125 3.5 C 3.1749313 3.8329907 3.0097656 4.2372678 3.0097656 4.7128906 C 3.0097656 5.1886229 3.1748218 5.5927906 3.5078125 5.9257812 C 3.8408032 6.2586625 4.2450803 6.4238281 4.7207031 6.4238281 C 5.1963259 6.4238281 5.6006031 6.2586625 5.9335938 5.9257812 C 6.266475 5.5927906 6.4335938 5.1886229 6.4335938 4.7128906 C 6.4335938 4.2372678 6.266475 3.8329907 5.9335938 3.5 C 5.6007125 3.1671188 5.1964354 3 4.7207031 3 z M 4.7207031 9.2675781 C 4.2449709 9.2675781 3.8408032 9.4345874 3.5078125 9.7675781 C 3.1749313 10.100459 3.0097656 10.504736 3.0097656 10.980469 C 3.0097656 11.456092 3.1748218 11.860478 3.5078125 12.193359 C 3.8408032 12.526241 4.2450803 12.693359 4.7207031 12.693359 C 5.1963259 12.693359 5.6006031 12.526241 5.9335938 12.193359 C 6.266475 11.860478 6.4335938 11.456092 6.4335938 10.980469 C 6.4335938 10.504736 6.2665844 10.100459 5.9335938 9.7675781 C 5.6007125 9.4346969 5.1964354 9.2675781 4.7207031 9.2675781 z M 4.7207031 15.576172 C 4.2449709 15.576172 3.8406937 15.741228 3.5078125 16.074219 C 3.1749313 16.407209 3.0097656 16.811487 3.0097656 17.287109 C 3.0097656 17.762951 3.1748218 18.167009 3.5078125 18.5 C 3.8408032 18.832881 4.2450803 19 4.7207031 19 C 5.1963259 19 5.6006031 18.832881 5.9335938 18.5 C 6.266475 18.167009 6.4335938 17.762951 6.4335938 17.287109 C 6.4335938 16.811487 6.266475 16.4071 5.9335938 16.074219 C 5.6007125 15.741338 5.1964354 15.576172 4.7207031 15.576172 z "
     class="ColorScheme-Highlight"
     />
</svg>
